X:1
T:Title
%%score { ( 1 4 5 ) | ( 2 3 ) }
L:1/8
M:4/4
K:Ab
V:1 treble nm="Grand Piano"
V:4 treble 
V:5 treble 
V:2 bass 
V:3 bass 
V:1
 z4 z2[Q:1/4=100] E2 | [CEA]3 B c2 d2 | e2 =d2 e[K:bass]E,A,[K:treble]C | %3
 E2 [EGBe]2 [EAe]2 [EGBde]2 |[M:3/4] [Acea]2 [CEA]2 [CA]2 |[M:1/4] E2 |[M:4/4] A3 B c2 d2 | %7
 e6 [Fd]2 | c3 d c2 B2 | [CA]6 C2 | F3 [=EG] A2 B2 | c6 c2 | B2 B2 c2 =d2 | [Ge]6 E2 | %14
 B3 =A B2 c2 | d6 c2 | d2 c2 B2 A2 | A2 G2 F2 EE | [Ee]3 [Ge] e2 e2 | e2 c2 [EA]2 [Fd]2 | %20
 [Ec]4 [DB]4 |[M:3/4] [CA]6 |[M:1/4] E2 |[M:4/4] c6 z2 | d6 d2 | [Ec]2 [CE]2 [CA]2 [Ec]2 | %26
 [Ge]6 z2 | [DB]3 A G>A [DB]>c | [Fd]2 [Ec]2 [DB]2 [Ee]2 | z4 [Ee]2 e2 | e2 e2 e2 E2 | %31
 e3 d c2 [A,EA]2 | [A,EG]2 [A,DF]2 [A,DF]2 [A,DF]2 | z4 B2 z2 | E2 F2 [B,EG]2 [G,E]2 | %35
 [A,EA]2 [EB]2 [Ec]2 [EAc]2 | [DAd]2 [Ae]2 [Af]2 [Af]2 | [Ae]3 [A=d] [Ae]2 [DEG]2 | %38
 [CEA]4- [CEA]>[K:bass]E, F,>G, | z z/[K:treble] G/ A>B A>G, A,>B, | z z/ c/ c>c c>B, C>D | %41
 E2 e2 e2 [Be]2 | [GBe]>f e>f e>[K:bass]E, F,>G, | z z/[K:treble] G/ A>B A>G, A,>B, | %44
 z z/ c/ c>c c>B, C>D | %45
 E2 e2 e2 e2[Q:1/4=98][Q:1/4=97][Q:1/4=95][Q:1/4=94][Q:1/4=92][Q:1/4=91][Q:1/4=89][Q:1/4=88][Q:1/4=86][Q:1/4=84][Q:1/4=83][Q:1/4=81][Q:1/4=80][Q:1/4=78][Q:1/4=77] | %46
[M:3/4] a6 |] %47
V:2
 z4 z2 E,2 | z2 z [DE] z2 B,2 | [A,CA]2 [A,_CFA]2 .[A,=CEA]2 z2 | E,2 [D,D]2 [C,C]2 [B,,B,]2 | %4
[M:3/4] [A,,A,]2 [E,,E,]2 A,,2 |[M:1/4] E,2 |[M:4/4][K:treble] [A,CE]3 [A,DE] [A,EA]2 [A,B,A]2 | %7
 [A,CA]6[K:bass] [D,A,]2 | [E,A,E]3 [E,B,E] [E,A,E]2 [E,G,D]2 | [A,,E,]6 C,2 | %10
 [F,A,C]3 [C,C][K:treble] [F,CF]2 [G,C=E]2 | [A,CF]6 [=A,E_G]2 | [B,EG]2 [B,EG]2 [B,=DA]2 [B,A]2 | %13
 [E,B,]6 [E,G,]2 | [E,G,E]3 [E,_G,E] [E,=G,E]2 [E,A,E]2 | [E,B,E]6 [E,=A,E]2 | %16
 [E,B,E]2 [E,A,E]2 [E,DE]2 [E,CE]2 | [E,B,D]2 [E,B,D]2 [E,A,D]2 G,-[D,G,] | %18
 [C,A,]3 [E,B,][K:treble] [A,CA]2 [B,DG]2 | [A,CA]2[K:bass] [A,E]2 [C,A,]2 [D,A,]2 | %20
 [E,A,]4 [E,G,]4 |[M:3/4] [A,,A,]6 |[M:1/4] z2 |[M:4/4] z2 [A,,A,]2 [A,,A,]2 z2 | %24
 z2 [D,A,]2 [D,A,]2 [F,A,F]2 | [A,,A,]2 [A,,A,]2 [A,,A,]2 [A,,A,]2 | [E,B,]6 E2 | %27
 E,,2 z C B,>C z z/ E/ | E,,2 E,2 G,2 [E,D]2 | z4 z2[K:treble] [A,C]2 | %30
 [CE]2 [B,DE]2 [A,CE]2 [B,D]2 | [A,CE]3 [A,B,E] z z/ B/[K:bass] z z/ G/ | D,2 D,2 D,2 D,2 | %33
 z4 z2 [E,E]2 | [G,B,]2 [F,B,=D]2 E,>F, E,>D, | C,2 [E,G,]2 A,2 A,>_G, | %36
 F,2 [E,C]2 [D,D]2 [=D,_C]2 | [E,C]3 [=E,_C] [_E,=C]2 E,2 | A,,6 z2 | %39
 z z/[K:treble] [B,E]/ [CE]>[DE] [CE]2 z2 | z z/ [=EG]/ [FA]>[GB] [FA]2 z2 | %41
 z2 [DEGB]2 [B,DEG]2[K:bass] [G,DE]2 | z z/[K:treble] [GB]/ [GB]>[GB] [GB]2 z2 | %43
 z z/ [B,E]/ [CE]>[DE] [CE]2 z2 | z z/ [=EG]/ [FA]>[GB] [FA]2 z2 | z2 [DEGB]2 [CEA]2 [B,DEG]2 | %46
[M:3/4] [A,CEA]6 |] %47
V:3
 x8 | [A,,A,]4 [A,E]4 | x8 | x8 |[M:3/4] x6 |[M:1/4] x2 |[M:4/4][K:treble] x8 | x6[K:bass] x2 | %8
 x8 | x8 | x4[K:treble] x4 | x8 | x8 | x8 | x8 | x8 | x8 | z4 z2 .[E,D]2 | x4[K:treble] x4 | %19
 x2[K:bass] x6 | x8 |[M:3/4] x6 |[M:1/4] x2 |[M:4/4] x8 | x8 | x8 | x8 | z2 E,2 z2 E,2 | x8 | %29
 [A,C]2 [G,B,]2 [F,A,]>G,[K:treble] E->[B,E] | x8 | z4 A,2[K:bass] C,2 | x8 | %33
 [B,,B,]3 [C,=A,] D,>=D, B,->[A,B,=D] | x8 | x8 | x8 | x8 | x8 | x3/2[K:treble] x13/2 | x8 | %41
 x6[K:bass] x2 | [E,D]6[K:treble] z2 | x8 | x8 | x8 |[M:3/4] x6 |] %47
V:4
 x8 | x8 | x5[K:bass] x2[K:treble] x | x8 |[M:3/4] x6 |[M:1/4] x2 |[M:4/4] x8 | x8 | x8 | x8 | x8 | %11
 x8 | x8 | x8 | x8 | x8 | x8 | x8 | x8 | x8 | x8 |[M:3/4] x6 |[M:1/4] x2 |[M:4/4] z2 E2 E2 A2 | %24
 z4 F2 z2 | x8 | x8 | x8 | x8 | [Ee]2 [Ee]2 z z/ B,/ z z/ D/ | x8 | x8 | x8 | %33
 [Fd]3 [Fc] [B,F]->[B,FA] G>F | x8 | x8 | x8 | x8 | x11/2[K:bass] x5/2 | A,6[K:treble] z2 | C6 z2 | %41
 x8 | x11/2[K:bass] x5/2 | A,6[K:treble] z2 | C6 z2 | x8 |[M:3/4] x6 |] %47
V:5
 x8 | x8 | x5[K:bass] x2[K:treble] x | x8 |[M:3/4] x6 |[M:1/4] x2 |[M:4/4] x8 | x8 | x8 | x8 | x8 | %11
 x8 | x8 | x8 | x8 | x8 | x8 | x8 | x8 | x8 | x8 |[M:3/4] x6 |[M:1/4] x2 |[M:4/4] x8 | %24
 z2 F2 z z/ E,/ z z/ G,/ | x8 | x8 | x8 | x8 | x8 | x8 | x8 | x8 | x8 | x8 | x8 | x8 | x8 | %38
 x11/2[K:bass] x5/2 | x3/2[K:treble] x13/2 | x8 | x8 | x11/2[K:bass] x5/2 | x3/2[K:treble] x13/2 | %44
 x8 | x8 |[M:3/4] x6 |] %47

